symbolic/32x32/apps/dash-qt.svg

<svg xmlns="http://www.w3.org/2000/svg" width="32" height="32" version="1.1">
 <path style="opacity:.2" d="m16 3a14 14 0 0 0 -14 14 14 14 0 0 0 14 14 14 14 0 0 0 14 -14 14 14 0 0 0 -14 -14z"/>
 <path style="fill:#1c75bc" d="m16 2a14 14 0 0 0 -14 14 14 14 0 0 0 14 14 14 14 0 0 0 14 -14 14 14 0 0 0 -14 -14z"/>
 <path style="opacity:.2" d="m10.445227 12-0.8613064 3h11.954181l-2.076871 5h-11.599924l-0.861307 3h12.401736c1.381303-0.02504 2.801222-0.856869 3.343819-2.17395l2.168816-6.474854c0.511993-2.096416-1.378458-2.351196-2.840824-2.351196zm-2.4067911 4-1.0384359 3h6.922906l1.038436-3z"/>
 <path style="fill:#ffffff" d="m10.445227 11-0.8613064 3h11.954181l-2.076871 5h-11.599924l-0.861307 3h12.401736c1.381303-0.02504 2.801222-0.856869 3.343819-2.17395l2.168816-6.474854c0.511993-2.096416-1.378458-2.351196-2.840824-2.351196zm-2.4067911 4-1.0384359 3h6.922906l1.038436-3z"/>
 <path style="opacity:.2;fill:#ffffff" d="m16 2a14 14 0 0 0 -14 14 14 14 0 0 0 0.0214844 0.414062 14 14 0 0 1 13.978516 -13.414062 14 14 0 0 1 13.978516 13.585938 14 14 0 0 0 0.021484 -0.585938 14 14 0 0 0 -14 -14z"/>
</svg>

<svg xmlns="http://www.w3.org/2000/svg" width="32" height="32"><path style="opacity:.2" d="M16 3A14 14 0 0 0 2 17a14 14 0 0 0 14 14 14 14 0 0 0 14-14A14 14 0 0 0 16 3z"/><path style="fill:#1c75bc" d="M16 2A14 14 0 0 0 2 16a14 14 0 0 0 14 14 14 14 0 0 0 14-14A14 14 0 0 0 16 2z"/><path style="opacity:.2" d="m10.445 12-.861 3h11.954l-2.077 5h-11.6L7 23h12.402c1.381-.025 2.801-.857 3.344-2.174l2.168-6.475c.512-2.096-1.378-2.351-2.84-2.351zm-2.407 4L7 19h6.923l1.038-3z"/><path style="fill:#fff" d="m10.445 11-.861 3h11.954l-2.077 5h-11.6L7 22h12.402c1.381-.025 2.801-.857 3.344-2.174l2.168-6.475c.512-2.096-1.378-2.351-2.84-2.351zm-2.407 4L7 18h6.923l1.038-3z"/><path style="opacity:.2;fill:#fff" d="M16 2A14 14 0 0 0 2 16a14 14 0 0 0 .021.414A14 14 0 0 1 16 3a14 14 0 0 1 13.979 13.586A14 14 0 0 0 30 16 14 14 0 0 0 16 2z"/></svg>
